X:378
T:Entroito (MG 74)
R:Entroito
C:Tradicional
S:Msica Tradicional Asturiana, (C) Tello & Tito. Asturies, 2001.
S:http://pagina.de/MusTradAst <telloytito@asturies.org>
A:Asturies
Z:Mtodu de Gaita 74
M:3/8
L:1/8
Q:3/8=50
E:Comp.
K:C
c|:"Coda"GA/B/A/B/|GG c|GA/B/A/B/|
GA/G/F/E/|D/E/F/G/F/D/|[1 .E~E c:|[2 .EE ~E/D/||
|:CE G/F/|.DD ~D/C/|B,D G/E/|CC E/D/:|
|CE G/F/|.DD ~D/C/|B,D G/E/|CC G/F/|
|:EG A/G/|F2 F/E/|D/E/F/G/F/D/|[1 .EE G/F/:|
[2 .EE ~E/D/||:C/D/E/F/G/F/|.DD ~D/C/|B,/C/D/E/F/G/|
CC E/D/:|C/D/E/F/G/F/|.DD ~D/C/|B,/C/D/E/F/G/|
C2 c|
|:"A coda"[EG][F/A/][G/B/][F/A/][G/B/]|[CE][CE][Ac]|[EG][F/A/][G/B/][F/A/][G/B/]|
[EG][F/A/][E/G/][D/F/][C/E/]|[B,/D/][C/E/][D/F/][E/G/][D/F/][B,/D/]|[1 [CE][CE] c:|[2 .EE ~E/D/||
|:CE G/F/|.DD ~D/C/|B,D G/E/|CC E/D/:|
|CE G/F/|.DD ~D/C/|B,D G/E/|CC [E/G/][D/F/]
|:[CE][EG][F/A/][E/G/]|[D2F2] [~D/~F/][C/E/]|[B,/D/][C/E/][D/F/][E/G/][D/F/][B,/D/]|[CE][CE][E/G/][D/F/]:|
|:[C/E/][D/F/][E/G/][F/A/][G/B/][E/G/]|[D2F2][~D/~F/][C/E/]|[B,/D/][C/E/][D/F/][E/G/][F/A/][G/B/]|[C2E2][E/G/][D/F/]:|
|[C/E/][D/F/][E/G/][F/A/][G/B/][E/G/]|[D2F2][~D/~F/][C/E/]|[B,/D/][C/E/][D/F/][E/G/][F/A/][G/B/]|[C2E2][EG]|
"Fin"[ C/E/]||
